X: 8
T:Stack's Hornpipe (#313)
M:4/4
L:1/8
S:Patrick Stack, Chicago
R:Hornpipe
K:D
(3ABc|d2 (3cBA BFAF|DFAF G2 (3FED|FAdc Bdgf|(3efe (3dcB A2 (3ABc|
dBcA BFAF|DFAF GFED|FAdf (3efe ce|dfec d2:|
|:ec|Acec Acec|Adfd Adfd|Acef gfgf|(3efe (3dcB A2 (3ABc|
dBcA BFAF|DFAF GFED|FAdf (3efe ce|dfec d2:||

